!!!COM: Mozart, Wolfgang Amadeus
!!!OTL: Musikalische Würfelspiele, Kontre-Tänze
!!!SCA: K<sup>6</sup> Anh. C30.01 (K<sup>3</sup> Anh. 294d)
**kern	**kern
*staff2	*staff2
*clefF4	*clefG2
*M2/4	*M2/4
*MM110	*MM110
*>[A,A1,A,A2,B]	*>[A,A1,A,A2,B]
*>norep[A,A2,B]	*>norep[A,A2,B]
*>A	*>A
=105	=105
4C	16cc
.	16b
.	16cc
.	16dd
4C	16ee
.	16dd
.	16ee
.	16ff
=81	=81
4C	8cc
.	8g
4r	8cc
.	8ee
=131	=131
16GG	8ff
16D	.
16BB	4dd
16D	.
16GG	.
16D	.
16BB	8b
16D	.
=35	=35
4C	16cc
.	16dd
.	16ee
.	16dd
4CC	16cc
.	16ee
.	16gg
.	16cc
=147	=147
4D	16dd
.	16ee
.	16ff#
.	16gg
4F#	16aa
.	16ff#
.	16ee
.	16dd
=92	=92
4G	8gg
.	8dd
4r	8b
.	8g
=23	=23
4C	16ee
.	16cc
.	16ee
.	16cc
4D	8a
.	8ff#
=102	=102
*>A1	*>A1
16BB	4g 4b 4gg
16GG	.
16BB	.
16D	.
16G	4r
16F	.
16E	.
16D	.
=102:|!	=102:|!
*>A2	*>A2
16BB	4g 4b 4gg
16GG	.
16BB	.
16D	.
16GG	4r
16AA	.
16BB	.
16C#	.
=66||	=66||
*>B	*>B
4D	8ff#
.	16ff#
.	16aa
4D	8ddd
.	16aa
.	16ff#
=91	=91
16BB	4gg
16D	.
16G	.
16D	.
16BB	8bb
16GG	.
16AA	8r
16BB	.
=87	=87
4C	8ee
.	16cc
.	16ee
4r	8gg
.	16ee
.	16cc
=173	=173
4GG	16b
.	16g
.	16d
.	16B
4r	16G
.	16g
.	16b
.	16dd
=59	=59
16C	4cc
16E	.
16G	.
16E	.
16C	8cc
16E	.
16G	8cc
16E	.
=110	=110
8E	8cc
16E	8ee
16E	.
8E	8cc
8C	8g
=2	=2
4GG	8dd
.	8ff
4GG	8b
.	8dd
=41	=41
4C	4cc
4CC	4c
==	==
*-	*-
